X:126
T:Culloden Fight
M:6/8
L:1/8
B:Thompson's Compleat Collection of 200 Favourite Country Dances, vol. 3 (London, 1773)
Z:Transcribed and edited by Flynn Titford-Mock, 2007
Z:abc's:AK/Fiddler's Companion
K:G
GAG B2G | d2B A3 | GAG B2G | F2G AFD | GAG B2G | d2B A3 | gfg edc | BcA G3 :|
|: B2G B2G | F2G AFD | B2G B2G | cBc ABc | B2G B2G | F2G AFD | gfg edc | BcA G3 :|

